X: 444
T: A Tune For Katty
R: waltz
M: 3/4
K: Eminor
"Em"E3G Bd|"A"^c2A2E2|"Em"B3B AG|"D"FD FA GF|
"Em"DE EG Bd|"A"^c2A2e2|"G"B3B AG|1 "B7"AB BF AG:|2 "Bsus4" AB BE FG||
|:"Am"Ac eg fe|"C"c3g fe|"Em"B3e ge|"Em"BG EF G^G|
"Am"Ac eg fe|"Fmaj7"c3g fe|"B7"B2e2^d2|1 "Em" e3E FG|:2"Em"e3A GF||

